X:10072
T:Maggie Lawder. HSJJ.186
M:4/4
L:1/8
Q:120
S:HSJ Jackson,Wyresdale,Lancs.1823
R:Air
O:England
A:Lancashire
N:Whew!.
H:1823
Z:Chris Partington
K:D
.de.df .de.df|eF g/f/e/d/ c2{d}e2|dedf dedf|ab a/b/a/g/~f2a2|!
g/f/g/a/ g/b/a/g/ f/e/f/g/ f/a/g/f/|e/d/e/f/ g/f/e/d/c2{d}e2|!
d/-c/.B/.A/ B/-A/.G/.F/ G/-F/.E/.D/ Eg|f/-a/.g/.f/ e/-g/.f/.e/d2D2:|!
|f/g/a/f/ dg f/g/a/f/ df|eE g/f/e/d/c2e2|f/g/a/f/ dg f/g/a/f/ df|!
a>b a/b/a/g/ f2a2|g/-f/g/a/ g/-b/.a/.g/ f/-e/.f/.g/ f/-a/.g/.f/|e/-d/.e/
.f/ g/-f/.e/.d/c2e2|!
d/-c/.B/.A/ B/-A/.G/.F/ G/-F/.E/.D/ Ef|f/-a/.g/.f/ e/-g/.f/.e/d2D2:|!
|:a/-f/.d a/-f/.d a/-f/.d/.f/ d/-f/.a/f/|eE g/f/e/d/c2e2|a/f/d/f/ d/f/a/
f/ a/f/d/f/ d/f/a/f/|!
a/g/a/b/ a/b/a/g/f2a2|
.g/(B/G/B/) G/-B/.g/.B/ .e/(c/A/c/) A/-c/e/c/|Df g/-f/.e/.d/c2e2|!
d/-c/B/A/ B/-A/G/F/ G/F/E/D/ Eg|f/a/g/f/ e/g/f/e/d2D2:|!
|:D/-F/.A/.d/ D/-F/.A/.d/ f/a/D/g/ f/a/D/f/
|eE g/f/e/d/c2e2|D/F/A/d/ D/F/A/d/ f/a/D/g/ f/a/D/f/|!a/g/a/b/ a/b/a/g/
f2a2|
.g/(B/G/B/) G/B/g/B/ e/c/A/c/ A/c/e/c/|!
Ee g/f/e/d/c2e2|d/-c/.B/.A/ B/-A/.G/.F/ G/-F/.E/.D/ Eg|
f/a/g/f/ e/g/f/e/d2D2:|]
